X: 1133
T: Swedish Jig
B: steve's tunes
M:6/8
L:1/8
Q: 3/8=100
K:D
V:1 
"D"A3 AGF | "D"EDC D3 | "D"d2 e fgf | "A"edc "D"d3 | "D"d2 e fgf |"A"edc "D"dAA |
"G"BAG "D"FED | "A"EDC "D"DA,B, |"A"CDE "D"Ddd |"A"Aee "D"Aff | "A7"Agg "D"fed |
"A"edc "D"d2 d |"D"dcB "Dm"A=ff |"Dm"=fef Aff |"Dm"=fef Aff | "Dm"Agg Aaa |
"Dm"A^aa =A=ff |"Dm"=fef Aff |"Dm"=f2 g fed |"C"edd "Dm"d2 d |"Bb"d=c^A d2 d |
"D"d2 e fgf | "A"edc dAA | "G"BAG "D"FED | "A"EDC "D"DA,B, | "A"CDE "D"Ddd |
"A"Aee "D"Aff | "A7"Agg "D"fed | "A"edc "D"d2 d |"D"d2 e d2 d | "D"dcB z3 |]
% abcbook-tune_id 629c16a781734f87d0bd05ce


% abcbook-boost 6
% abcbook-tablature 
% abcbook-transpose 
% abcbook-lastupdated 1656114571430
% abcbook-soundfonts 
% abcbook-repeats 3
%%scale 0.71
%%pagewidth 21.59cm
%%leftmargin 1.58cm
%%rightmargin 1.58cm

